X:54
T:Craig's pipes
R:Reel
O:Ireland
B:Irish Traditional Music Session Tunes 2 n9
S:Irish Traditional Music Session Tunes 2 n9
Z:Transcription, minor arr., chords:Mike Long
M:C|
L:1/8
K:G
"G"~B2BA BAGA|"G"~B2GB "C"AGEG|"G"~B2BA BAGB|"D"~A2BG "C"AGEG|\
"G"~B2BA BAGA|"G"~B2dB "C"AGEG|
"G"(3Bcd ed BddB|"D"~A2BG "C"AGEG\
|:"G"DG~G2 DG~G2|"G"DGBG "C"AGEG|"G"DGGF "C"GABc|[1 "D"dBAc "C"BGEG:|
[2 "D"dBAc "G"BGBc\
|:"G"~d2Bd "C"efge|"G"~d2BG "D"AGEG|"G"~d2Bd "C"efge|"D"~a2bg "C"ageg:|
